_includes/icons/color-address-book.svg

<svg fill="#666" height="50" viewBox="0 0 48 48" width="50" xmlns="http://www.w3.org/2000/svg"><path d="m38 44h-26v-40h26c2.199219 0 4 1.800781 4 4v32c0 2.199219-1.800781 4-4 4z" fill="#673ab7"/><path d="m10 4h2v40h-2c-2.199219 0-4-1.800781-4-4v-32c0-2.199219 1.800781-4 4-4z" fill="#311b92"/><path d="m36 24.199219c-.101562 4.800781-3.101562 6.902344-5.300781 6.699219-.597656-.097657-2.097656-.097657-2.898438-1.597657-.800781 1-1.800781 1.597657-3.101562 1.597657-2.597656 0-3.300781-2.5-3.398438-3.097657-.101562-.699218-.199218-1.402343-.101562-2.199218.101562-1 1.101562-6.5 5.699219-6.5 2.203125 0 3.5 1.097656 3.703125 1.296875l-.601563 6.800781c0 .300781-.199219 1.601562 1.101563 1.601562 2.097656 0 2.398437-3.902343 2.398437-4.601562.101563-1.199219.300781-8.199219-7-8.199219-6.898437 0-7.898437 7.398438-8 9.199219-.5 8.5 6 8.5 7.199219 8.5 1.699219 0 3.699219-.699219 3.902344-.800781l.398437 2c-.300781.203125-2 1.101562-4.398437 1.101562-2.203125 0-10.101563-.398437-9.800782-10.800781.300782-2.097656 1.597657-11.199219 10.800782-11.199219 9.199218 0 9.398437 8.101563 9.398437 10.199219zm-11.898437 1.300781c-.101563 1 0 1.800781.199218 2.300781.199219.5.597657.800782 1.199219.800782.101563 0 .300781 0 .398438-.101563.203125-.101562.300781-.101562.5-.300781.203125-.097656.300781-.300781.5-.597656.203125-.203125.300781-.601563.402343-1l.5-5.402344c-.199218-.097656-.5-.097656-.699218-.097656-.5 0-.902344.097656-1.203125.296875-.296875.203125-.597657.5-.898438.800781-.199219.402344-.398437.800781-.601562 1.300781-.199219.5-.199219 1.300781-.296875 2z" fill="#fff"/></svg>

<svg xmlns="http://www.w3.org/2000/svg" viewBox="0 0 48 48" width="50" height="50" fill="#666"><path d="M 38 44 L 12 44 L 12 4 L 38 4 C 40.199219 4 42 5.800781 42 8 L 42 40 C 42 42.199219 40.199219 44 38 44 Z" fill="#673ab7"/><path d="M 10 4 L 12 4 L 12 44 L 10 44 C 7.800781 44 6 42.199219 6 40 L 6 8 C 6 5.800781 7.800781 4 10 4 Z" fill="#311b92"/><path d="M 36 24.199219 C 35.898438 29 32.898438 31.101563 30.699219 30.898438 C 30.101563 30.800781 28.601563 30.800781 27.800781 29.300781 C 27 30.300781 26 30.898438 24.699219 30.898438 C 22.101563 30.898438 21.398438 28.398438 21.300781 27.800781 C 21.199219 27.101563 21.101563 26.398438 21.199219 25.601563 C 21.300781 24.601563 22.300781 19.101563 26.898438 19.101563 C 29.101563 19.101563 30.398438 20.199219 30.601563 20.398438 L 30 27.199219 C 30 27.5 29.800781 28.800781 31.101563 28.800781 C 33.199219 28.800781 33.5 24.898438 33.5 24.199219 C 33.601563 23 33.800781 16 26.5 16 C 19.601563 16 18.601563 23.398438 18.5 25.199219 C 18 33.699219 24.5 33.699219 25.699219 33.699219 C 27.398438 33.699219 29.398438 33 29.601563 32.898438 L 30 34.898438 C 29.699219 35.101563 28 36 25.601563 36 C 23.398438 36 15.5 35.601563 15.800781 25.199219 C 16.101563 23.101563 17.398438 14 26.601563 14 C 35.800781 14 36 22.101563 36 24.199219 Z M 24.101563 25.5 C 24 26.5 24.101563 27.300781 24.300781 27.800781 C 24.5 28.300781 24.898438 28.601563 25.5 28.601563 C 25.601563 28.601563 25.800781 28.601563 25.898438 28.5 C 26.101563 28.398438 26.199219 28.398438 26.398438 28.199219 C 26.601563 28.101563 26.699219 27.898438 26.898438 27.601563 C 27.101563 27.398438 27.199219 27 27.300781 26.601563 L 27.800781 21.199219 C 27.601563 21.101563 27.300781 21.101563 27.101563 21.101563 C 26.601563 21.101563 26.199219 21.199219 25.898438 21.398438 C 25.601563 21.601563 25.300781 21.898438 25 22.199219 C 24.800781 22.601563 24.601563 23 24.398438 23.5 C 24.199219 24 24.199219 24.800781 24.101563 25.5 Z" fill="#fff"/></svg>
